X:1
T:Title
%%score 1 2 3 4
L:1/8
Q:1/4=504
M:4/4
K:Bb
V:1 treble nm="Clavecin, Cantus" snm="Cla."
V:2 treble nm="Clavecin, Altus" snm="Cla."
V:3 treble-8 nm="Clavecin, Tenor" snm="Cla."
V:4 bass nm="Clavecin, Bassus" snm="Cla."
V:1
 d8 | c4 B4 | A8 | B4 A4- | A4 A4 | B4 B4 | A8 | B8 | d8 | c4 B4 | A8 | B4 A4- | A4 A4 | B4 B4 | %14
w: By~Orazio~Vecchi||||||||||||||
 A8 | B8 | d8 | d4 d4 | _d8 | d4 =B4- | B4 c4 | c4 e4 | d8 | =B8 | z8 | z8 | z8 | z8 | z8 | z8 | %30
w: ||||||||||||||||
 z8 | z8 | B8- | B4 c4 | A8- | A4 A4 | B8- | B4 B4 | A8 | A4 A4 | G8 | F4 F4- | F4 E4 | D8 | D8 | %45
w: |||||||||||||||
 z8 | z8 | z8 | z8 | z8 | z8 | z8 | z8 | B8- | B4 c4 | A8- | A4 A4 | B8- | B4 B4 | A8 | A4 A4 | %61
w: ||||||||||||||||
 G8 | F4 F4- | F4 E4 | D8 | D8- | D8 | d8 | c4 B4 | A8 | B4 A4- | A4 A4 | B4 B4 | A8 | B8 | d8 | %76
w: |||||||||||||||
 c4 B4 | A8 | B4 A4- | A4 A4 | B4 B4 | A8 | B8 | d8 | d4 d4 | _d8 | d4 =B4- | B4 c4 | c4 e4 | d8 | %90
w: ||||||||||||||
 =B8 | z8 | z8 | z8 | z8 | z8 | z8 | z8 | z8 | B8- | B4 c4 | A8- | A4 A4 | B8- | B4 B4 | A8 | %106
w: ||||||||||||||||
 A4 A4 | G8 | F4 F4- | F4 E4 | D8 | D8 | z8 | z8 | z8 | z8 | z8 | z8 | z8 | z8 | B8- | B4 c4 | %122
w: ||||||||||||||||
 A8- | A4 A4 | B8- | B4 B4 | A8 | A4 A4 | G8 | F4 F4- | F4 E4 | D8 | D8- | D8 | d8 | c4 B4 | A8 | %137
w: |||||||||||||||
 B4 A4- | A4 A4 | B4 B4 | A8 | B8 | d8 | c4 B4 | A8 | B4 A4- | A4 A4 | B4 B4 | A8 | B8 | d8 | %151
w: ||||||||||||||
 d4 d4 | _d8 | d4 =B4- | B4 c4 | c4 e4 | d8 | =B8 | z8 | z8 | z8 | z8 | z8 | z8 | z8 | z8 | B8- | %167
w: ||||||||||||||||
 B4 c4 | A8- | A4 A4 | B8- | B4 B4 | A8 | A4 A4 | G8 | F4 F4- | F4 E4 | D8 | D8 | z8 | z8 | z8 | %182
w: |||||||||||||||
 z8 | z8 | z8 | z8 | z8 | B8- | B4 c4 | A8- | A4 A4 | B8- | B4 B4 | A8 | A4 A4 | G8 | F4 F4- | %197
w: |||||||||||||||
 F4 E4 | D8 | D8- | D8 | d8 | c4 B4 | A8 | B4 A4- | A4 A4 | B4 B4 | A8 | B8 | d8 | c4 B4 | A8 | %212
w: |||||||||||||||
 B4 A4- | A4 A4 | B4 B4 | A8 | B8 | d8 | d4 d4 | _d8 | d4 =B4- | B4 c4 | c4 e4 | d8 | =B8 | z8 | %226
w: ||||||||||||||
 z8 | z8 | z8 | z8 | z8 | z8 | z8 | B8- | B4 c4 | A8- | A4 A4 | B8- | B4 B4 | A8 | A4 A4 | G8 | %242
w: ||||||||||||||||
 F4 F4- | F4 E4 | D8 | D8 | z8 | z8 | z8 | z8 | z8 | z8 | z8 | z8 | B8- | B4 c4 | A8- | A4 A4 | %258
w: ||||||||||||||||
 B8- | B4 B4 | A8 | A4 A4 | G8 | F4 F4- | F4 E4 | D8 | D8- | D8 |] %268
w: ||||||||||
V:2
 B8 | A4 G4 | ^F8 | G4 C4- | C4 D4 | F4 F4 | F8 | F8 | B8 | A4 G4 | ^F8 | G4 C4- | C4 D4 | F4 F4 | %14
w: Fa~u|na~ can|zo|ne~ sen|* ze~|no te~|ne|re~|Per~|en tre~|non~|vi~ spar|* ge|re~ du|
 F8 | F8 | B8 | B4 B4 | A8 | A4 G4- | G4 G4 | G4 G4 | ^F8 | G8 | D8 | D4 D4 | B,8 | B,4 B,4 | B,8 | %29
w: \-rez|ze~|Che~|le~ mio~or|e|cchie~ no~|* vi~|so no~a|vez|ze~|Fal|la~ d'un~|tuo~|no~ ch'in~|vi|
 B,4 B,4 | C8 | D8 | G8- | G4 G4 | F8- | F4 F4 | z4 F4- | F4 G4 | =E8 | =E4 F4 | E8 | D4 D4- | %42
w: ta~al~ dor|mi|re~|Dol|* ce~|men|* te,~|dol|* ce~|men|te~ fa|cen|do~ la~|
 D4 C4 | A,8 | =B,8 | D8 | D4 D4 | B,8 | B,4 B,4 | B,8 | B,4 B,4 | C8 | D8 | G8- | G4 G4 | F8- | %56
w: * fi|ni|re.~||||||||||||
 F4 F4 | z4 F4- | F4 G4 | =E8 | =E4 F4 | E8 | D4 D4- | D4 C4 | A,8 | =B,8- | B,8 | B8 | A4 G4 | %69
w: |||||||||||Per~|en tre~|
 ^F8 | G4 C4- | C4 D4 | F4 F4 | F8 | F8 | B8 | A4 G4 | ^F8 | G4 C4- | C4 D4 | F4 F4 | F8 | F8 | %83
w: non~|vi~ spar|* ge|re~ du|rez|ze~|Per~|en tre~|non~|vi~ spar|* ge|re~ du|\-rez|ze~|
 B8 | B4 B4 | A8 | A4 G4- | G4 G4 | G4 G4 | ^F8 | G8 | D8 | D4 D4 | B,8 | B,4 B,4 | B,8 | B,4 B,4 | %97
w: Che~|le~ mio~or|e|cchie~ no~|* vi~|so no~a|vez|ze~|||||||
 C8 | D8 | G8- | G4 G4 | F8- | F4 F4 | z4 F4- | F4 G4 | =E8 | =E4 F4 | E8 | D4 D4- | D4 C4 | A,8 | %111
w: ||||||||||||||
 =B,8 | D8 | D4 D4 | B,8 | B,4 B,4 | B,8 | B,4 B,4 | C8 | D8 | G8- | G4 G4 | F8- | F4 F4 | z4 F4- | %125
w: ||||||||||||||
 F4 G4 | =E8 | =E4 F4 | E8 | D4 D4- | D4 C4 | A,8 | =B,8- | B,8 | B8 | A4 G4 | ^F8 | G4 C4- | %138
w: |||||||||Ne~|vi~ far~|ci|fra~�~ se|
 C4 D4 | F4 F4 | F8 | F8 | B8 | A4 G4 | ^F8 | G4 C4- | C4 D4 | F4 F4 | F8 | F8 | B8 | B4 B4 | A8 | %153
w: * gno~|con ta~|se|gno~|Ne~|vi~ far~|ci|fra~�~ se|* gno~|con ta~|se|gno~|Sop|ra~o gni~|co|
 A4 G4- | G4 G4 | G4 G4 | ^F8 | G8 | D8 | D4 D4 | B,8 | B,4 B,4 | B,8 | B,4 B,4 | C8 | D8 | G8- | %167
w: sa~ quest'~|* e'~l~|mio~ di|se|gno~||||||||||
 G4 G4 | F8- | F4 F4 | z4 F4- | F4 G4 | =E8 | =E4 F4 | E8 | D4 D4- | D4 C4 | A,8 | =B,8 | D8 | %180
w: |||||||||||||
 D4 D4 | B,8 | B,4 B,4 | B,8 | B,4 B,4 | C8 | D8 | G8- | G4 G4 | F8- | F4 F4 | z4 F4- | F4 G4 | %193
w: |||||||||||||
 =E8 | =E4 F4 | E8 | D4 D4- | D4 C4 | A,8 | =B,8- | B,8 | B8 | A4 G4 | ^F8 | G4 C4- | C4 D4 | %206
w: ||||||||Con~|que sto~|sti|le~il~ for|* tu|
 F4 F4 | F8 | F8 | B8 | A4 G4 | ^F8 | G4 C4- | C4 D4 | F4 F4 | F8 | F8 | B8 | B4 B4 | A8 | A4 G4- | %221
w: na to~Or|fe|o~|Con~|que sto~|sti|le~il~ for|* tu|na to~Or|\-fe|o~|Pro|ser pi|na~|la~ gi�~|
 G4 G4 | G4 G4 | ^F8 | G8 | D8 | D4 D4 | B,8 | B,4 B,4 | B,8 | B,4 B,4 | C8 | D8 | G8- | G4 G4 | %235
w: * pla|car~ po|te|o,~|Que|sto~�~ lo~|sti|le~ che~|que|tar~ gi�~|fe|o~|Con~|* dol|
 F8- | F4 F4 | z4 F4- | F4 G4 | =E8 | =E4 F4 | E8 | D4 D4- | D4 C4 | A,8 | =B,8 | D8 | D4 D4 | %248
w: cez|* za,~|con~|* dol|cez|za~�~ Saul~|lo~|spi ri|* to~|re|al.~|Que|sto~�~ lo~|
 B,8 | B,4 B,4 | B,8 | B,4 B,4 | C8 | D8 | G8- | G4 G4 | F8- | F4 F4 | z4 F4- | F4 G4 | =E8 | %261
w: sti|le~ che~|que|tar~ gi�~|fe|o~|Con~|* dol|cez|* za,~|con~|* dol|cez|
 =E4 F4 | E8 | D4 D4- | D4 C4 | A,8 | =B,8- | B,8 |] %268
w: za~�~ Saul~|lo~|spi ri|* to~|re|\-al~||
V:3
 f8 | f4 d4 | d8 | d4 f4- | f4 f4 | d4 d4 | c8 | d8 | f8 | f4 d4 | d8 | d4 f4- | f4 f4 | d4 d4 | %14
w: Fa~u|na~ can|zo|ne~ sen|* ze~|no te~|ne|re~|Per~|en tre~|non~|vi~ spar|* ge|re~ du|
 c8 | d8 | f8 | f4 g4 | =e8 | f4 d4- | d4 e4 | c4 B4 | A8 | G8 | F8 | F4 F4 | G8 | G4 G4 | G8 | %29
w: \-rez|ze~|Che~|le~ mio~or|e|cchie~ no~|* vi~|so no~a|vez|ze~||||||
 G4 B4 | A8 | B8 | e8- | e4 c4 | d8- | d4 d4 | d8- | d4 d4 | _d8 | _d4 =d4 | B8 | B4 B4- | B4 G4 | %43
w: |||Dol|* ce~|men|* te,~|dol|* ce~|men|te~ fa|cen|do~ la~|* fi|
 ^F8 | G8 | F8 | F4 F4 | G8 | G4 G4 | G8 | G4 B4 | A8 | B8 | e8- | e4 c4 | d8- | d4 d4 | d8- | %58
w: ni|re.~||||||||||||||
 d4 d4 | _d8 | _d4 =d4 | B8 | B4 B4- | B4 G4 | ^F8 | G8- | G8 | f8 | f4 d4 | d8 | d4 f4- | f4 f4 | %72
w: |||||||||Per~|en tre~|non~|vi~ spar|* ge|
 d4 d4 | c8 | d8 | f8 | f4 d4 | d8 | d4 f4- | f4 f4 | d4 d4 | c8 | d8 | f8 | f4 g4 | =e8 | f4 d4- | %87
w: re~ du|rez|ze~|Per~|en tre~|non~|vi~ spar|* ge|re~ du|\-rez|ze~|Che~|le~ mio~or|e|cchie~ no~|
 d4 e4 | c4 B4 | A8 | G8 | F8 | F4 F4 | G8 | G4 G4 | G8 | G4 B4 | A8 | B8 | e8- | e4 c4 | d8- | %102
w: * vi~|so no~a|vez|ze~||||||||||||
 d4 d4 | d8- | d4 d4 | _d8 | _d4 =d4 | B8 | B4 B4- | B4 G4 | ^F8 | G8 | F8 | F4 F4 | G8 | G4 G4 | %116
w: ||||||||||||||
 G8 | G4 B4 | A8 | B8 | e8- | e4 c4 | d8- | d4 d4 | d8- | d4 d4 | _d8 | _d4 =d4 | B8 | B4 B4- | %130
w: ||||||||||||||
 B4 G4 | ^F8 | G8- | G8 | f8 | f4 d4 | d8 | d4 f4- | f4 f4 | d4 d4 | c8 | d8 | f8 | f4 d4 | d8 | %145
w: ||||Ne~|vi~ far~|ci|fra~�~ se|* gno~|con ta~|se|gno~|Ne~|vi~ far~|ci|
 d4 f4- | f4 f4 | d4 d4 | c8 | d8 | f8 | f4 g4 | =e8 | f4 d4- | d4 e4 | c4 B4 | A8 | G8 | F8 | %159
w: fra~�~ se|* gno~|con ta~|se|gno~|Sop|ra~o gni~|co|sa~ quest'~|* e'~l~|mio~ di|se|gno~||
 F4 F4 | G8 | G4 G4 | G8 | G4 B4 | A8 | B8 | e8- | e4 c4 | d8- | d4 d4 | d8- | d4 d4 | _d8 | %173
w: ||||||||||||||
 _d4 =d4 | B8 | B4 B4- | B4 G4 | ^F8 | G8 | F8 | F4 F4 | G8 | G4 G4 | G8 | G4 B4 | A8 | B8 | e8- | %188
w: |||||||||||||||
 e4 c4 | d8- | d4 d4 | d8- | d4 d4 | _d8 | _d4 =d4 | B8 | B4 B4- | B4 G4 | ^F8 | G8- | G8 | f8 | %202
w: |||||||||||||Con~|
 f4 d4 | d8 | d4 f4- | f4 f4 | d4 d4 | c8 | d8 | f8 | f4 d4 | d8 | d4 f4- | f4 f4 | d4 d4 | c8 | %216
w: que sto~|sti|le~il~ for|* tu|na to~Or|fe|o~|Con~|que sto~|sti|le~il~ for|* tu|na to~Or|\-fe|
 d8 | f8 | f4 g4 | =e8 | f4 d4- | d4 e4 | c4 B4 | A8 | G8 | F8 | F4 F4 | G8 | G4 G4 | G8 | G4 B4 | %231
w: o~|Pro|ser pi|na~|la~ gi�~|* pla|car~ po|te|o,~|||||||
 A8 | B8 | e8- | e4 c4 | d8- | d4 d4 | d8- | d4 d4 | _d8 | _d4 =d4 | B8 | B4 B4- | B4 G4 | ^F8 | %245
w: ||Con~|* dol|cez|* za,~|con~|* dol|cez|za~�~ Saul~|lo~|spi ri|* to~|re|
 G8 | F8 | F4 F4 | G8 | G4 G4 | G8 | G4 B4 | A8 | B8 | e8- | e4 c4 | d8- | d4 d4 | d8- | d4 d4 | %260
w: al.~|||||||||Con~|* dol|cez|* za,~|con~|* dol|
 _d8 | _d4 =d4 | B8 | B4 B4- | B4 G4 | ^F8 | G8- | G8 |] %268
w: cez|za~�~ Saul~|lo~|spi ri|* to~|re|\-al~||
V:4
 B,8 | F,4 G,4 | D,8 | G,4 F,4- | F,4 D,4 | B,,4 B,,4 | F,8 | B,,8 | B,8 | F,4 G,4 | D,8 | %11
w: Fa~u|na~ can|zo|ne~ sen|* ze~|no te~|ne|re~|Per~|en tre~|non~|
 G,4 F,4- | F,4 D,4 | B,,4 B,,4 | F,8 | B,,8 | B,8 | B,4 G,4 | A,8 | D,4 G,4- | G,4 C,4 | C,4 G,4 | %22
w: vi~ spar|* ge|re~ du|\-rez|ze~|Che~|le~ mio~or|e|cchie~ no~|* vi~|so no~a|
 D,8 | G,,8 | B,,8 | B,,4 B,,4 | E,8 | E,4 E,4 | E,8 | E,4 G,4 | F,8 | B,,8 | z8 | z8 | z8 | z8 | %36
w: vez|ze~|Fal|la~ d'un~|tuo~|no~ ch'in~|vi|ta~al~ dor|mi|re~|||||
 B,8- | B,4 G,4 | A,8 | A,4 D,4 | E,8 | B,,4 B,,4- | B,,4 C,4 | D,8 | G,,8 | B,,8 | B,,4 B,,4 | %47
w: dol|* ce~|men|te~ fa|cen|do~ la~|* fi|ni|re.~|||
 E,8 | E,4 E,4 | E,8 | E,4 G,4 | F,8 | B,,8 | z8 | z8 | z8 | z8 | B,8- | B,4 G,4 | A,8 | A,4 D,4 | %61
w: ||||||||||||||
 E,8 | B,,4 B,,4- | B,,4 C,4 | D,8 | G,,8- | G,,8 | B,8 | F,4 G,4 | D,8 | G,4 F,4- | F,4 D,4 | %72
w: ||||||Per~|en tre~|non~|vi~ spar|* ge|
 B,,4 B,,4 | F,8 | B,,8 | B,8 | F,4 G,4 | D,8 | G,4 F,4- | F,4 D,4 | B,,4 B,,4 | F,8 | B,,8 | B,8 | %84
w: re~ du|rez|ze~|Per~|en tre~|non~|vi~ spar|* ge|re~ du|\-rez|ze~|Che~|
 B,4 G,4 | A,8 | D,4 G,4- | G,4 C,4 | C,4 G,4 | D,8 | G,,8 | B,,8 | B,,4 B,,4 | E,8 | E,4 E,4 | %95
w: le~ mio~or|e|cchie~ no~|* vi~|so no~a|vez|ze~|||||
 E,8 | E,4 G,4 | F,8 | B,,8 | z8 | z8 | z8 | z8 | B,8- | B,4 G,4 | A,8 | A,4 D,4 | E,8 | %108
w: |||||||||||||
 B,,4 B,,4- | B,,4 C,4 | D,8 | G,,8 | B,,8 | B,,4 B,,4 | E,8 | E,4 E,4 | E,8 | E,4 G,4 | F,8 | %119
w: |||||||||||
 B,,8 | z8 | z8 | z8 | z8 | B,8- | B,4 G,4 | A,8 | A,4 D,4 | E,8 | B,,4 B,,4- | B,,4 C,4 | D,8 | %132
w: |||||||||||||
 G,,8- | G,,8 | B,8 | F,4 G,4 | D,8 | G,4 F,4- | F,4 D,4 | B,,4 B,,4 | F,8 | B,,8 | B,8 | F,4 G,4 | %144
w: ||Ne~|vi~ far~|ci|fra~�~ se|* gno~|con ta~|se|gno~|Ne~|vi~ far~|
 D,8 | G,4 F,4- | F,4 D,4 | B,,4 B,,4 | F,8 | B,,8 | B,8 | B,4 G,4 | A,8 | D,4 G,4- | G,4 C,4 | %155
w: ci|fra~�~ se|* gno~|con ta~|se|gno~|Sop|ra~o gni~|co|sa~ quest'~|* e'~l~|
 C,4 G,4 | D,8 | G,,8 | B,,8 | B,,4 B,,4 | E,8 | E,4 E,4 | E,8 | E,4 G,4 | F,8 | B,,8 | z8 | z8 | %168
w: mio~ di|se|gno~|||||||||||
 z8 | z8 | B,8- | B,4 G,4 | A,8 | A,4 D,4 | E,8 | B,,4 B,,4- | B,,4 C,4 | D,8 | G,,8 | B,,8 | %180
w: ||||||||||||
 B,,4 B,,4 | E,8 | E,4 E,4 | E,8 | E,4 G,4 | F,8 | B,,8 | z8 | z8 | z8 | z8 | B,8- | B,4 G,4 | %193
w: |||||||||||||
 A,8 | A,4 D,4 | E,8 | B,,4 B,,4- | B,,4 C,4 | D,8 | G,,8- | G,,8 | B,8 | F,4 G,4 | D,8 | %204
w: ||||||||Con~|que sto~|sti|
 G,4 F,4- | F,4 D,4 | B,,4 B,,4 | F,8 | B,,8 | B,8 | F,4 G,4 | D,8 | G,4 F,4- | F,4 D,4 | %214
w: le~il~ for|* tu|na to~Or|fe|o~|Con~|que sto~|sti|le~il~ for|* tu|
 B,,4 B,,4 | F,8 | B,,8 | B,8 | B,4 G,4 | A,8 | D,4 G,4- | G,4 C,4 | C,4 G,4 | D,8 | G,,8 | B,,8 | %226
w: na to~Or|\-fe|o~|Pro|ser pi|na~|la~ gi�~|* pla|car~ po|te|o,~|Que|
 B,,4 B,,4 | E,8 | E,4 E,4 | E,8 | E,4 G,4 | F,8 | B,,8 | z8 | z8 | z8 | z8 | B,8- | B,4 G,4 | %239
w: sto~�~ lo~|sti|le~ che~|que|tar~ gi�~|fe|o~|||||con~|* dol|
 A,8 | A,4 D,4 | E,8 | B,,4 B,,4- | B,,4 C,4 | D,8 | G,,8 | B,,8 | B,,4 B,,4 | E,8 | E,4 E,4 | %250
w: cez|za~�~ Saul~|lo~|spi ri|* to~|re|al.~|Que|sto~�~ lo~|sti|le~ che~|
 E,8 | E,4 G,4 | F,8 | B,,8 | z8 | z8 | z8 | z8 | B,8- | B,4 G,4 | A,8 | A,4 D,4 | E,8 | %263
w: que|tar~ gi�~|fe|o~|||||con~|* dol|cez|za~�~ Saul~|lo~|
 B,,4 B,,4- | B,,4 C,4 | D,8 | G,,8- | G,,8 |] %268
w: spi ri|* to~|re|\-al~||

